X:395
T:Reel 395
M:4/4
K:Gmaj
L:1/8
G>B (3BAB d2B (3dBd |c>B (3BAB e2d2| (3cBc d>B  (3ABA e>d (3BAB |c>A (3AAA e>A (3AAA | (3dff g>e  (3fed d2| (3efe d>B  (3ege d2| (3efe dB BB (3ABA |e2|:e>d  (3cBA B2Bd|e>c (3AGc g>G (3BAB |c>A (3AAA e>A (3AAA |e2 (3cBA A2 (3ABc |e>A (3AAA e>A (3AAA |e2 (3cBc d2fd|e>A (3AAA e2dc|B>A (3AAA e>d (3AAA |e>A (3AAA e2d2|
